X: 73
T:Sarah Armstrong
M:C
L:1/8
S:https://tunearch.org/wiki/Sarah_Armstrong
K:D
(A,2|A,2) D2 B,2 D2|A,2 DE FE D2|E2A2F2A2|E2 AB cB A2|
A,2 [G,2D2] B,2 [G,2D2]|A,2 DE FE D2|E2 A2 A3B|AGFE D2:|
|:d2 dA dAF[DA]|E2E2 EFGA|B2 Bc BAFE|D2 [D2d2] [Dd]ABc|
d2 dA dAF[DA]|E2E2 EFGA|B2 Bc BAFE|D2 [D2d2][D2d2]:||

